Newaita-dark/mimetypes/16/x-office-calendar.svg

<?xml version="1.0" encoding="UTF-8"?>
<svg xmlns="http://www.w3.org/2000/svg" xmlns:xlink="http://www.w3.org/1999/xlink" width="16px" height="16px" viewBox="0 0 16 16" version="1.1">
<defs>
<linearGradient id="linear0" gradientUnits="userSpaceOnUse" x1="254" y1="233.5" x2="254" y2="254.666672" gradientTransform="matrix(0.031253,0,0,0.031253,0.33076,6.719392)">
<stop offset="0" style="stop-color:rgb(0%,0%,0%);stop-opacity:0.27451;"/>
<stop offset="1" style="stop-color:rgb(0%,0%,0%);stop-opacity:0;"/>
</linearGradient>
<radialGradient id="radial0" gradientUnits="userSpaceOnUse" cx="450.908936" cy="189.579361" fx="450.908936" fy="189.579361" r="21.166656" gradientTransform="matrix(0.0000000870852,-0.0390662,-0.0703192,-0.0000000507693,24.742285,31.797665)">
<stop offset="0" style="stop-color:rgb(0%,0%,0%);stop-opacity:0.313726;"/>
<stop offset="0.222222" style="stop-color:rgb(0%,0%,0%);stop-opacity:0.27451;"/>
<stop offset="1" style="stop-color:rgb(0%,0%,0%);stop-opacity:0;"/>
</radialGradient>
<radialGradient id="radial1" gradientUnits="userSpaceOnUse" cx="450.908936" cy="189.579361" fx="450.908936" fy="189.579361" r="21.166656" gradientTransform="matrix(-0.0000000870852,0.0390662,0.0703192,0.0000000507693,-9.196524,-3.76374)">
<stop offset="0" style="stop-color:rgb(0%,0%,0%);stop-opacity:0.313726;"/>
<stop offset="0.222222" style="stop-color:rgb(0%,0%,0%);stop-opacity:0.27451;"/>
<stop offset="1" style="stop-color:rgb(0%,0%,0%);stop-opacity:0;"/>
</radialGradient>
<radialGradient id="radial2" gradientUnits="userSpaceOnUse" cx="450.908936" cy="189.579361" fx="450.908936" fy="189.579361" r="21.166656" gradientTransform="matrix(-0.0000000870852,-0.0390662,0.0703192,-0.0000000507693,-9.196524,31.797665)">
<stop offset="0" style="stop-color:rgb(0%,0%,0%);stop-opacity:0.313726;"/>
<stop offset="0.222222" style="stop-color:rgb(0%,0%,0%);stop-opacity:0.27451;"/>
<stop offset="1" style="stop-color:rgb(0%,0%,0%);stop-opacity:0;"/>
</radialGradient>
<radialGradient id="radial3" gradientUnits="userSpaceOnUse" cx="450.908936" cy="189.579361" fx="450.908936" fy="189.579361" r="21.166656" gradientTransform="matrix(0.0000000870852,0.0390662,-0.0703192,0.0000000507693,24.742284,-3.763741)">
<stop offset="0" style="stop-color:rgb(0%,0%,0%);stop-opacity:0.313726;"/>
<stop offset="0.222222" style="stop-color:rgb(0%,0%,0%);stop-opacity:0.27451;"/>
<stop offset="1" style="stop-color:rgb(0%,0%,0%);stop-opacity:0;"/>
</radialGradient>
<linearGradient id="linear1" gradientUnits="userSpaceOnUse" x1="940" y1="1695.118164" x2="940" y2="175.118118" gradientTransform="matrix(0.00826902,0,0,0.00826902,0,0)">
<stop offset="0" style="stop-color:rgb(64.705884%,83.92157%,65.490198%);stop-opacity:1;"/>
<stop offset="1" style="stop-color:rgb(78.431374%,90.196079%,78.823531%);stop-opacity:1;"/>
</linearGradient>
<filter id="alpha" filterUnits="objectBoundingBox" x="0%" y="0%" width="100%" height="100%">
  <feColorMatrix type="matrix" in="SourceGraphic" values="0 0 0 0 1 0 0 0 0 1 0 0 0 0 1 0 0 0 1 0"/>
</filter>
<mask id="mask0">
  <g filter="url(#alpha)">
<rect x="0" y="0" width="16" height="16" style="fill:rgb(0%,0%,0%);fill-opacity:0.99;stroke:none;"/>
  </g>
</mask>
<linearGradient id="linear2" gradientUnits="userSpaceOnUse" x1="4272.755859" y1="7219.344238" x2="4272.755859" y2="1474.462158" gradientTransform="matrix(0.264583,0,0,0.264583,-190.5,-214.999985)">
<stop offset="0" style="stop-color:rgb(40.000001%,73.333335%,41.568628%);stop-opacity:1;"/>
<stop offset="1" style="stop-color:rgb(50.588238%,78.039217%,51.764709%);stop-opacity:1;"/>
</linearGradient>
<clipPath id="clip1">
  <rect x="0" y="0" width="16" height="16"/>
</clipPath>
<g id="surface5" clip-path="url(#clip1)">
<path style="fill-rule:nonzero;fill:url(#linear2);stroke-width:11.338583;stroke-linecap:round;stroke-linejoin:round;stroke:rgb(12.941177%,12.941177%,12.941177%);stroke-opacity:1;stroke-miterlimit:4;" d="M 739.771914 694.894307 C 728.906809 694.894307 719.931288 703.869829 719.931288 715.207329 L 719.931288 733.630768 L 630.176075 733.630768 C 626.869304 733.630768 623.562533 734.103164 620.728158 735.047955 L 619.783366 735.047955 C 608.918261 735.047955 599.94274 744.023477 599.94274 754.888581 L 599.94274 1235.315169 C 599.94274 1246.180274 608.918261 1255.155795 619.783366 1255.155795 L 1259.879754 1255.155795 C 1271.217254 1255.155795 1280.192776 1246.180274 1280.192776 1235.315169 L 1280.192776 754.888581 C 1280.192776 744.023477 1271.217254 735.047955 1259.879754 735.047955 L 1258.934962 735.047955 C 1256.100587 734.103164 1253.266212 733.630768 1249.959441 733.630768 L 1160.204228 733.630768 L 1160.204228 715.207329 C 1160.204228 703.869829 1151.228706 694.894307 1139.891206 694.894307 L 1060.056306 694.894307 C 1048.718805 694.894307 1040.21568 703.869829 1040.21568 715.207329 L 1040.21568 733.630768 L 839.919836 733.630768 L 839.919836 715.207329 C 839.919836 703.869829 830.944315 694.894307 820.07921 694.894307 Z M 700.090662 855.036503 L 779.925562 855.036503 C 791.263062 855.036503 799.766188 864.012025 799.766188 875.349525 L 799.766188 955.184425 C 799.766188 966.04953 791.263062 975.025051 779.925562 975.025051 L 700.090662 975.025051 C 688.753161 975.025051 679.77764 966.04953 679.77764 955.184425 L 679.77764 875.349525 C 679.77764 864.012025 688.753161 855.036503 700.090662 855.036503 Z M 899.91411 855.036503 L 980.221406 855.036503 C 991.08651 855.036503 1000.062032 864.012025 1000.062032 875.349525 L 1000.062032 955.184425 C 1000.062032 966.04953 991.08651 975.025051 980.221406 975.025051 L 899.91411 975.025051 C 889.049005 975.025051 880.073484 966.04953 880.073484 955.184425 L 880.073484 875.349525 C 880.073484 864.012025 889.049005 855.036503 899.91411 855.036503 Z M 1100.209954 855.036503 L 1180.044854 855.036503 C 1190.909958 855.036503 1199.88548 864.012025 1199.88548 875.349525 L 1199.88548 955.184425 C 1199.88548 966.04953 1190.909958 975.025051 1180.044854 975.025051 L 1100.209954 975.025051 C 1088.872453 975.025051 1079.896932 966.04953 1079.896932 955.184425 L 1079.896932 875.349525 C 1079.896932 864.012025 1088.872453 855.036503 1100.209954 855.036503 Z M 700.090662 1055.332347 L 779.925562 1055.332347 C 791.263062 1055.332347 799.766188 1063.835473 799.766188 1075.172973 L 799.766188 1155.007873 C 799.766188 1166.345374 791.263062 1175.320895 779.925562 1175.320895 L 700.090662 1175.320895 C 688.753161 1175.320895 679.77764 1166.345374 679.77764 1155.007873 L 679.77764 1075.172973 C 679.77764 1063.835473 688.753161 1055.332347 700.090662 1055.332347 Z M 899.91411 1055.332347 L 980.221406 1055.332347 C 991.08651 1055.332347 1000.062032 1063.835473 1000.062032 1075.172973 L 1000.062032 1155.007873 C 1000.062032 1166.345374 991.08651 1175.320895 980.221406 1175.320895 L 899.91411 1175.320895 C 889.049005 1175.320895 880.073484 1166.345374 880.073484 1155.007873 L 880.073484 1075.172973 C 880.073484 1063.835473 889.049005 1055.332347 899.91411 1055.332347 Z M 1100.209954 1055.332347 L 1180.044854 1055.332347 C 1190.909958 1055.332347 1199.88548 1063.835473 1199.88548 1075.172973 L 1199.88548 1155.007873 C 1199.88548 1166.345374 1190.909958 1175.320895 1180.044854 1175.320895 L 1100.209954 1175.320895 C 1088.872453 1175.320895 1079.896932 1166.345374 1079.896932 1155.007873 L 1079.896932 1075.172973 C 1079.896932 1063.835473 1088.872453 1055.332347 1100.209954 1055.332347 Z M 1100.209954 1055.332347 " transform="matrix(0.00826902,0,0,0.00826902,0,0)"/>
</g>
<linearGradient id="linear3" gradientUnits="userSpaceOnUse" x1="249.189423" y1="233.5" x2="249.189423" y2="254.666687" gradientTransform="matrix(0.0149471,0,0,0.0546927,7.521211,-8.180455)">
<stop offset="0" style="stop-color:rgb(0%,0%,0%);stop-opacity:0.27451;"/>
<stop offset="1" style="stop-color:rgb(0%,0%,0%);stop-opacity:0;"/>
</linearGradient>
<linearGradient id="linear4" gradientUnits="userSpaceOnUse" x1="338.666656" y1="233.5" x2="338.666656" y2="-168.666672" gradientTransform="matrix(0.031253,0,0,0.031253,0,6.719392)">
<stop offset="0" style="stop-color:rgb(40.000001%,73.333335%,41.568628%);stop-opacity:1;"/>
<stop offset="1" style="stop-color:rgb(50.588238%,78.039217%,51.764709%);stop-opacity:1;"/>
</linearGradient>
</defs>
<g id="surface1">
<path style=" stroke:none;fill-rule:nonzero;fill:url(#linear0);" d="M 3.96875 14.015625 L 11.578125 14.015625 L 11.578125 14.679688 L 3.96875 14.679688 Z M 3.96875 14.015625 "/>
<path style=" stroke:none;fill-rule:nonzero;fill:url(#radial0);" d="M 11.578125 14.015625 L 12.898438 14.015625 L 12.898438 13.355469 L 11.578125 13.355469 Z M 11.578125 14.015625 "/>
<path style=" stroke:none;fill-rule:nonzero;fill:url(#radial1);" d="M 3.96875 14.015625 L 2.644531 14.015625 L 2.644531 14.679688 L 3.96875 14.679688 Z M 3.96875 14.015625 "/>
<path style=" stroke:none;fill-rule:nonzero;fill:url(#radial2);" d="M 3.96875 14.015625 L 2.644531 14.015625 L 2.644531 13.355469 L 3.96875 13.355469 Z M 3.96875 14.015625 "/>
<path style=" stroke:none;fill-rule:nonzero;fill:url(#radial3);" d="M 11.578125 14.015625 L 12.898438 14.015625 L 12.898438 14.679688 L 11.578125 14.679688 Z M 11.578125 14.015625 "/>
<path style=" stroke:none;fill-rule:nonzero;fill:url(#linear1);" d="M 9.269531 1.449219 L 3.308594 1.449219 C 2.941406 1.449219 2.644531 1.742188 2.644531 2.109375 L 2.644531 13.355469 C 2.644531 13.722656 2.941406 14.015625 3.308594 14.015625 L 12.238281 14.015625 C 12.605469 14.015625 12.898438 13.722656 12.898438 13.355469 L 12.898438 5.078125 Z M 9.269531 1.449219 "/>
<path style=" stroke:none;fill-rule:nonzero;fill:rgb(0%,0%,0%);fill-opacity:0.235294;" d="M 2.644531 13.097656 L 2.644531 13.355469 C 2.644531 13.722656 2.941406 14.015625 3.308594 14.015625 L 12.238281 14.015625 C 12.605469 14.015625 12.898438 13.722656 12.898438 13.355469 L 12.898438 13.097656 C 12.898438 13.464844 12.605469 13.761719 12.238281 13.761719 L 3.308594 13.761719 C 2.941406 13.761719 2.644531 13.464844 2.644531 13.097656 Z M 2.644531 13.097656 "/>
<use xlink:href="#surface5" mask="url(#mask0)"/>
<path style=" stroke:none;fill-rule:nonzero;fill:url(#linear3);" d="M 9.261719 4.589844 L 12.402344 4.589844 L 12.898438 5.085938 L 12.898438 5.746094 L 9.261719 5.746094 Z M 9.261719 4.589844 "/>
<path style=" stroke:none;fill-rule:nonzero;fill:rgb(96.470588%,96.470588%,96.470588%);fill-opacity:0.588235;" d="M 3.308594 1.449219 C 2.941406 1.449219 2.644531 1.742188 2.644531 2.109375 L 2.644531 2.359375 C 2.644531 1.992188 2.941406 1.695312 3.308594 1.695312 L 9.269531 1.695312 L 12.898438 5.324219 L 12.898438 5.078125 L 9.269531 1.449219 Z M 3.308594 1.449219 "/>
<path style=" stroke:none;fill-rule:nonzero;fill:url(#linear4);" d="M 12.898438 5.078125 L 9.269531 1.449219 L 9.269531 4.414062 C 9.269531 4.78125 9.566406 5.078125 9.933594 5.078125 Z M 12.898438 5.078125 "/>
<path style=" stroke:none;fill-rule:nonzero;fill:rgb(0%,0%,0%);fill-opacity:0.235294;" d="M 9.269531 4.257812 L 9.269531 4.414062 C 9.269531 4.78125 9.566406 5.078125 9.933594 5.078125 L 12.898438 5.078125 L 12.742188 4.921875 L 9.933594 4.921875 C 9.566406 4.921875 9.269531 4.625 9.269531 4.257812 Z M 9.269531 4.257812 "/>
<path style=" stroke:none;fill-rule:nonzero;fill:rgb(100%,100%,100%);fill-opacity:0.392157;" d="M 9.269531 1.449219 L 9.269531 1.695312 L 12.652344 5.078125 L 12.898438 5.078125 Z M 9.269531 1.449219 "/>
<path style=" stroke:none;fill-rule:nonzero;fill:rgb(12.941177%,12.941177%,12.941177%);fill-opacity:1;" d="M 9.269531 1.402344 C 9.246094 1.402344 9.222656 1.421875 9.222656 1.449219 L 9.222656 4.414062 C 9.222656 4.808594 9.539062 5.125 9.933594 5.125 L 12.898438 5.125 C 12.917969 5.125 12.9375 5.113281 12.941406 5.09375 C 12.949219 5.078125 12.945312 5.058594 12.933594 5.042969 L 9.304688 1.414062 C 9.296875 1.40625 9.28125 1.402344 9.269531 1.402344 Z M 9.316406 1.5625 L 12.785156 5.03125 L 9.933594 5.03125 C 9.589844 5.03125 9.316406 4.757812 9.316406 4.414062 Z M 9.316406 1.5625 "/>
<path style=" stroke:none;fill-rule:nonzero;fill:rgb(12.941177%,12.941177%,12.941177%);fill-opacity:1;" d="M 3.308594 1.402344 C 2.914062 1.402344 2.597656 1.71875 2.597656 2.109375 L 2.597656 13.355469 C 2.597656 13.746094 2.914062 14.0625 3.308594 14.0625 L 12.238281 14.0625 C 12.628906 14.0625 12.945312 13.746094 12.945312 13.355469 L 12.945312 5.078125 C 12.945312 5.0625 12.941406 5.050781 12.933594 5.042969 L 9.304688 1.414062 C 9.296875 1.40625 9.285156 1.402344 9.269531 1.402344 Z M 3.308594 1.496094 L 9.25 1.496094 L 12.851562 5.097656 L 12.851562 13.355469 C 12.851562 13.695312 12.578125 13.96875 12.238281 13.96875 L 3.308594 13.96875 C 2.964844 13.96875 2.691406 13.695312 2.691406 13.355469 L 2.691406 2.109375 C 2.691406 1.769531 2.964844 1.496094 3.308594 1.496094 Z M 3.308594 1.496094 "/>
</g>
</svg>

<svg xmlns="http://www.w3.org/2000/svg" xmlns:xlink="http://www.w3.org/1999/xlink" width="16pt" height="16pt" viewBox="0 0 16 16"><defs><linearGradient id="d" gradientUnits="userSpaceOnUse" x1="254" y1="233.5" x2="254" y2="254.667" gradientTransform="matrix(.03125 0 0 .03125 .33 6.72)"><stop offset="0" stop-opacity=".275"/><stop offset="1" stop-opacity="0"/></linearGradient><radialGradient id="e" gradientUnits="userSpaceOnUse" cx="450.909" cy="189.579" fx="450.909" fy="189.579" r="21.167" gradientTransform="matrix(0 -.03907 -.07032 0 24.742 31.798)"><stop offset="0" stop-opacity=".314"/><stop offset=".222" stop-opacity=".275"/><stop offset="1" stop-opacity="0"/></radialGradient><radialGradient id="f" gradientUnits="userSpaceOnUse" cx="450.909" cy="189.579" fx="450.909" fy="189.579" r="21.167" gradientTransform="matrix(0 .03907 .07032 0 -9.197 -3.764)"><stop offset="0" stop-opacity=".314"/><stop offset=".222" stop-opacity=".275"/><stop offset="1" stop-opacity="0"/></radialGradient><radialGradient id="g" gradientUnits="userSpaceOnUse" cx="450.909" cy="189.579" fx="450.909" fy="189.579" r="21.167" gradientTransform="matrix(0 -.03907 .07032 0 -9.197 31.798)"><stop offset="0" stop-opacity=".314"/><stop offset=".222" stop-opacity=".275"/><stop offset="1" stop-opacity="0"/></radialGradient><radialGradient id="h" gradientUnits="userSpaceOnUse" cx="450.909" cy="189.579" fx="450.909" fy="189.579" r="21.167" gradientTransform="matrix(0 .03907 -.07032 0 24.742 -3.764)"><stop offset="0" stop-opacity=".314"/><stop offset=".222" stop-opacity=".275"/><stop offset="1" stop-opacity="0"/></radialGradient><linearGradient id="i" gradientUnits="userSpaceOnUse" x1="940" y1="1695.118" x2="940" y2="175.118" gradientTransform="rotate(.882) scale(.00827)"><stop offset="0" stop-color="#a5d6a7"/><stop offset="1" stop-color="#c8e6c9"/></linearGradient><filter id="a" filterUnits="objectBoundingBox" x="0%" y="0%" width="100%" height="100%"><feColorMatrix in="SourceGraphic" values="0 0 0 0 1 0 0 0 0 1 0 0 0 0 1 0 0 0 1 0"/></filter><mask id="k"><path fill-opacity=".988" d="M0 0h16v16H0z" filter="url(#a)"/></mask><linearGradient id="c" gradientUnits="userSpaceOnUse" x1="4272.756" y1="7219.344" x2="4272.756" y2="1474.462" gradientTransform="matrix(.26458 0 0 .26458 -190.5 -215)"><stop offset="0" stop-color="#66bb6a"/><stop offset="1" stop-color="#81c784"/></linearGradient><clipPath id="b"><path d="M0 0h16v16H0z"/></clipPath><g id="j" clip-path="url(#b)"><path d="M739.772 694.894c-10.865 0-19.84 8.976-19.84 20.313v18.424h-89.756c-3.307 0-6.613.472-9.448 1.417h-.945c-10.865 0-19.84 8.975-19.84 19.84v480.427c0 10.865 8.975 19.84 19.84 19.84h640.097c11.337 0 20.313-8.975 20.313-19.84V754.89c0-10.866-8.976-19.841-20.313-19.841h-.945c-2.834-.945-5.669-1.417-8.976-1.417h-89.755v-18.424c0-11.337-8.975-20.313-20.313-20.313h-79.835c-11.337 0-19.84 8.976-19.84 20.313v18.424H839.92v-18.424c0-11.337-8.976-20.313-19.84-20.313zM700.09 855.037h79.835c11.337 0 19.84 8.975 19.84 20.313v79.834c0 10.866-8.503 19.841-19.84 19.841H700.09c-11.338 0-20.313-8.975-20.313-19.84V875.35c0-11.338 8.975-20.313 20.313-20.313zm199.823 0h80.307c10.866 0 19.841 8.975 19.841 20.313v79.834c0 10.866-8.975 19.841-19.84 19.841h-80.308c-10.865 0-19.84-8.975-19.84-19.84V875.35c0-11.338 8.975-20.313 19.84-20.313zm200.296 0h79.835c10.865 0 19.84 8.975 19.84 20.313v79.834c0 10.866-8.975 19.841-19.84 19.841h-79.835c-11.338 0-20.313-8.975-20.313-19.84V875.35c0-11.338 8.975-20.313 20.313-20.313zm-400.12 200.295h79.836c11.337 0 19.84 8.503 19.84 19.841v79.835c0 11.337-8.503 20.313-19.84 20.313H700.09c-11.338 0-20.313-8.976-20.313-20.313v-79.835c0-11.338 8.975-19.84 20.313-19.84zm199.824 0h80.307c10.866 0 19.841 8.503 19.841 19.841v79.835c0 11.337-8.975 20.313-19.84 20.313h-80.308c-10.865 0-19.84-8.976-19.84-20.313v-79.835c0-11.338 8.975-19.84 19.84-19.84zm200.296 0h79.835c10.865 0 19.84 8.503 19.84 19.841v79.835c0 11.337-8.975 20.313-19.84 20.313h-79.835c-11.338 0-20.313-8.976-20.313-20.313v-79.835c0-11.338 8.975-19.84 20.313-19.84zm0 0" transform="rotate(.882) scale(.00827)" fill="url(#c)" stroke-width="11.339" stroke-linecap="round" stroke-linejoin="round" stroke="#212121"/></g><linearGradient id="l" gradientUnits="userSpaceOnUse" x1="249.189" y1="233.5" x2="249.189" y2="254.667" gradientTransform="matrix(.01495 0 0 .0547 7.521 -8.18)"><stop offset="0" stop-opacity=".275"/><stop offset="1" stop-opacity="0"/></linearGradient><linearGradient id="m" gradientUnits="userSpaceOnUse" x1="338.667" y1="233.5" x2="338.667" y2="-168.667" gradientTransform="matrix(.03125 0 0 .03125 0 6.72)"><stop offset="0" stop-color="#66bb6a"/><stop offset="1" stop-color="#81c784"/></linearGradient></defs><path d="M3.969 14.016h7.61v.664h-7.61zm0 0" fill="url(#d)"/><path d="M11.578 14.016h1.32v-.66h-1.32zm0 0" fill="url(#e)"/><path d="M3.969 14.016H2.645v.664h1.324zm0 0" fill="url(#f)"/><path d="M3.969 14.016H2.645v-.66h1.324zm0 0" fill="url(#g)"/><path d="M11.578 14.016h1.32v.664h-1.32zm0 0" fill="url(#h)"/><path d="M9.27 1.45H3.309a.66.66 0 0 0-.664.66v11.245c0 .368.296.66.664.66h8.93c.366 0 .66-.292.66-.66V5.078zm0 0" fill="url(#i)"/><path d="M2.645 13.098v.257c0 .368.296.66.664.66h8.93c.366 0 .66-.292.66-.66v-.257a.66.66 0 0 1-.66.664h-8.93a.664.664 0 0 1-.664-.664zm0 0" fill-opacity=".235"/><use xlink:href="#j" mask="url(#k)"/><path d="M9.262 4.59h3.14l.496.496v.66H9.262zm0 0" fill="url(#l)"/><path d="M3.309 1.45a.66.66 0 0 0-.664.66v.25c0-.368.296-.665.664-.665h5.96l3.63 3.63v-.247L9.268 1.45zm0 0" fill="#f6f6f6" fill-opacity=".588"/><path d="M12.898 5.078L9.27 1.45v2.965c0 .367.296.664.664.664zm0 0" fill="url(#m)"/><path d="M9.27 4.258v.156c0 .367.296.664.664.664h2.964l-.156-.156H9.934a.664.664 0 0 1-.664-.664zm0 0" fill-opacity=".235"/><path d="M9.27 1.45v.245l3.382 3.383h.246zm0 0" fill="#fff" fill-opacity=".392"/><path d="M9.27 1.402a.047.047 0 0 0-.047.047v2.965c0 .395.316.711.71.711h2.965c.02 0 .04-.012.043-.031.008-.016.004-.035-.007-.051l-3.63-3.629c-.007-.008-.023-.012-.034-.012zm.046.16l3.47 3.47H9.933a.614.614 0 0 1-.618-.618zm0 0" fill="#212121"/><path d="M3.309 1.402a.708.708 0 0 0-.711.707v11.246c0 .391.316.707.71.707h8.93c.39 0 .707-.316.707-.707V5.078c0-.016-.004-.027-.011-.035l-3.63-3.629c-.007-.008-.019-.012-.034-.012zm0 .094H9.25l3.602 3.602v8.257c0 .34-.274.614-.614.614h-8.93a.613.613 0 0 1-.617-.614V2.11c0-.34.274-.613.618-.613zm0 0" fill="#212121"/></svg>
